X: 1
T: Kinloss
C: Trad
R: strathspey
Z: 2010 John Chambers <jc:trillian.mit.edu>
S: printed MS of unknown origin
M: C
L: 1/16
K: D
B2 \
| "D"A3F D3E FA3 A3d | "G"B3A B3d "A7"ce3 e4 \
| "D"A3F D3E FA3 A3d | "G"B3d "A7"c3a "D"fd3 d2 :|
|: g2 \
| "D"f3a fd3 "A7"c3e cA3 | "Bm"d3f dB3 "F#m"A3c AF3 \
| "G"GABc d3B "D"Ad3 d4 | "A7"c3e a3e "D"fd3 d2 :|
